svgs/duotone/hand-scissors.svg

<svg xmlns="http://www.w3.org/2000/svg" viewBox="0 0 512 512"><!--! Font Awesome Pro 6.3.0 by @fontawesome - https://fontawesome.com License - https://fontawesome.com/license (Commercial License) Copyright 2023 Fonticons, Inc. --><defs><style>.fa-secondary{opacity:.4}</style></defs><path class="fa-secondary" d="M510.8 181.5c-3.02-31.08-18.35-60.13-43.55-79.04l-38.41-28.79C420.5 67.4 410.4 64.04 400 64.04H352c-14.58 0-28.38 6.625-37.48 18.01l-14.29 17.85l72.54 22.67c6.847 2.13 11.23 8.448 11.23 15.25c0 1.581-.2368 3.189-.7346 4.777C381.1 149.5 374.8 153.8 368 153.8c-1.578 0-3.188-.2344-4.766-.7344L84 65.89C79.98 64.61 75.91 63.1 71.91 63.1c-16.99 0-32.72 10.97-38.06 28.04c-1.255 3.991-1.851 8.032-1.851 12.01c0 17.01 10.93 32.78 28.01 38.15l209.5 65.84H40c-22.09 0-40 17.9-40 39.1s17.91 39.99 40 39.99h189.5C216.6 296.6 208 311.3 208 328c0 23.48 16.87 42.94 39.14 47.1C242.7 382.4 240 390.9 240 400C240 426.5 261.5 448 288 448h80c79.41 0 144-64.59 144-143.1V192C512 188.4 511.5 184.9 510.8 181.5z"/></svg>

<svg xmlns="http://www.w3.org/2000/svg" viewBox="0 0 512 512"><!-- Font Awesome Pro 6.0.0-alpha2 by @fontawesome - https://fontawesome.com License - https://fontawesome.com/license (Commercial License) --><defs><style>.fa-secondary{opacity:.4}</style></defs><path d="M510.752 181.475C507.732 150.398 492.398 121.34 467.203 102.432L428.797 73.637C420.484 67.404 410.391 64.045 400 64.045H352C337.422 64.045 323.625 70.67 314.516 82.059L300.23 99.91L372.766 122.578C379.612 124.708 384 131.026 384 137.833C384 139.414 383.763 141.022 383.266 142.609C381.125 149.469 374.812 153.844 368 153.844C366.422 153.844 364.812 153.609 363.234 153.109L84 65.889C79.979 64.608 75.909 63.999 71.909 63.999C54.922 63.999 39.193 74.971 33.844 92.041C32.589 96.032 31.992 100.073 31.992 104.046C31.992 121.053 42.926 136.823 60 142.191L269.502 208.027H40C17.906 208.027 0 225.932 0 248.023S17.906 288.018 40 288.018H229.52C216.561 296.611 208 311.297 208 328.014C208 351.492 224.869 370.951 247.139 375.115C242.697 382.393 240 390.854 240 400.006C240 426.518 261.484 448 288 448H368C447.406 448 512 383.414 512 304.016V192.029C512 188.391 511.518 184.881 510.752 181.475Z" class="fa-secondary"/></svg>
